X:4785
L:1/8
M:4/4
K:F
 c2 | cBAG F2 f2 | f2 f2 e3 d | c2 BA BdcB | AG e4 c2 | f2 ag fedc | =BGAB cdef | g=Bcf e2 d2 | 
 c6 || g2 | gfed c2 b2 | ag a2 agfe | dgba gfef | d2 d2 ^c4 | dfed gbag | A2 c2 d2 g2 | f4 e4 | 
 d6 c2 | faga fgef | decd B2 G2 | gbab gafg | efde c2 B2 | Ac f2 dfeg | f6 ||

